contributed-vectors/moviebase.svg

<svg xmlns="http://www.w3.org/2000/svg" xml:space="preserve" style="fill-rule:evenodd;clip-rule:evenodd;stroke-linejoin:round;stroke-miterlimit:2" viewBox="0 0 192 192"><path d="M164.5 21.5c0-5.519-4.481-10-10-10h-133c-5.519 0-10 4.481-10 10v133c0 5.519 4.481 10 10 10h133c5.519 0 10-4.481 10-10v-133Z" style="fill:#54688c" transform="translate(8 8)"/><path d="M82.226 59.858c.473.362.825.871 1.021 1.464l22.926 69.267-20.754 1.232a4.427 4.427 0 0 1-1.495-2.141L61.502 61.935l20.724-2.077ZM131.186 59.855c.473.362.826.87 1.023 1.463l23.091 69.464a1.691 1.691 0 0 1-1.606 2.227h-14.175a7.522 7.522 0 0 1-7.138-5.15l-22.062-66.367 20.867-1.637Z" style="fill:#f8c18c" transform="matrix(.8132 0 0 .8132 17.872 17.91)"/><path d="m82.226 59.858-22.459 67.988a7.524 7.524 0 0 1-7.143 5.163H38.455a1.692 1.692 0 0 1-1.607-2.224l22.946-69.461a3.318 3.318 0 0 1 3.151-2.278h17.152c.806 0 1.562.291 2.129.812Z" style="fill:url(#a)" transform="matrix(.8132 0 0 .8132 17.872 17.91)"/><path d="m131.186 59.855-23.232 70.191a4.319 4.319 0 0 1-4.1 2.963H88.532l-1.51-.241-1.332-.679-.271-.268 23.334-70.499a3.318 3.318 0 0 1 3.15-2.276h17.157l1.031.164.91.463.185.182Z" style="fill:url(#b)" transform="matrix(.8132 0 0 .8132 17.872 17.91)"/><defs><linearGradient id="a" x1="0" x2="1" y1="0" y2="0" gradientTransform="scale(78.1294) rotate(-71.203 1.485 .437)" gradientUnits="userSpaceOnUse"><stop offset="0" style="stop-color:#f8c18c;stop-opacity:1"/><stop offset="1" style="stop-color:#f9de81;stop-opacity:1"/></linearGradient><linearGradient id="b" x1="0" x2="1" y1="0" y2="0" gradientTransform="scale(78.1294) rotate(-71.203 1.485 .437)" gradientUnits="userSpaceOnUse"><stop offset="0" style="stop-color:#f8c18c;stop-opacity:1"/><stop offset="1" style="stop-color:#f9de81;stop-opacity:1"/></linearGradient></defs></svg>

<?xml version="1.0" encoding="UTF-8" standalone="no"?>
<!DOCTYPE svg PUBLIC "-//W3C//DTD SVG 1.1//EN" "http://www.w3.org/Graphics/SVG/1.1/DTD/svg11.dtd">
<svg width="100%" height="100%" viewBox="0 0 192 192" version="1.1" xmlns="http://www.w3.org/2000/svg" xmlns:xlink="http://www.w3.org/1999/xlink" xml:space="preserve" xmlns:serif="http://www.serif.com/" style="fill-rule:evenodd;clip-rule:evenodd;stroke-linejoin:round;stroke-miterlimit:2;">
    <g id="Layer1">
        <g transform="matrix(1,0,0,1,8,8)">
            <path d="M164.5,21.5C164.5,15.981 160.019,11.5 154.5,11.5L21.5,11.5C15.981,11.5 11.5,15.981 11.5,21.5L11.5,154.5C11.5,160.019 15.981,164.5 21.5,164.5L154.5,164.5C160.019,164.5 164.5,160.019 164.5,154.5L164.5,21.5Z" style="fill:rgb(84,104,140);"/>
        </g>
        <g transform="matrix(0.813198,0,0,0.813198,17.8722,17.9108)">
            <path d="M82.226,59.858C82.699,60.22 83.051,60.729 83.247,61.322L106.173,130.589L85.419,131.821C84.727,131.291 84.211,130.547 83.924,129.68L61.502,61.935L82.226,59.858Z" style="fill:rgb(248,193,140);"/>
            <path d="M131.186,59.855C131.659,60.217 132.012,60.725 132.209,61.318C135.863,72.31 151.68,119.892 155.3,130.782C155.472,131.298 155.385,131.865 155.067,132.306C154.749,132.747 154.238,133.009 153.694,133.009C150.337,133.009 144.066,133.009 139.519,133.009C136.279,133.009 133.403,130.934 132.381,127.859L110.319,61.492L131.186,59.855Z" style="fill:rgb(248,193,140);"/>
            <path d="M82.226,59.858L59.767,127.846C58.749,130.927 55.869,133.009 52.624,133.009C48.076,133.009 41.809,133.009 38.455,133.009C37.912,133.009 37.402,132.748 37.084,132.308C36.765,131.867 36.678,131.301 36.848,130.785C40.443,119.902 56.159,72.328 59.794,61.324C60.243,59.964 61.513,59.046 62.945,59.046L80.097,59.046C80.903,59.046 81.659,59.337 82.226,59.858Z" style="fill:url(#_Linear1);"/>
            <path d="M131.186,59.855L107.954,130.046C107.369,131.815 105.716,133.009 103.854,133.009L88.532,133.009L87.022,132.768C86.578,132.542 86.134,132.316 85.69,132.089L85.419,131.821L108.753,61.322C109.203,59.963 110.472,59.046 111.903,59.046L129.06,59.046L130.091,59.21C130.395,59.365 130.698,59.519 131.001,59.673L131.186,59.855Z" style="fill:url(#_Linear2);"/>
        </g>
    </g>
    <defs>
        <linearGradient id="_Linear1" x1="0" y1="0" x2="1" y2="0" gradientUnits="userSpaceOnUse" gradientTransform="matrix(25.174,-73.9626,73.9626,25.174,46.346,133.009)"><stop offset="0" style="stop-color:rgb(248,193,140);stop-opacity:1"/><stop offset="1" style="stop-color:rgb(249,222,129);stop-opacity:1"/></linearGradient>
        <linearGradient id="_Linear2" x1="0" y1="0" x2="1" y2="0" gradientUnits="userSpaceOnUse" gradientTransform="matrix(25.174,-73.9626,73.9626,25.174,46.346,133.009)"><stop offset="0" style="stop-color:rgb(248,193,140);stop-opacity:1"/><stop offset="1" style="stop-color:rgb(249,222,129);stop-opacity:1"/></linearGradient>
    </defs>
</svg>
